dist/icons/svgs/timer-solid.svg

<svg xmlns="http://www.w3.org/2000/svg" width="24" height="24" fill="currentcolor" class="icon-timer-solid" viewBox="0 0 24 24">
  <path d="M12 2C17.5078 2 22 6.49219 22 12C22 17.5469 17.5078 22 12 22C6.45312 22 2 17.5469 2 12C2 9.22656 3.13281 6.6875 4.96875 4.89062C5.47656 4.38281 6.25781 4.38281 6.76562 4.89062C7.23438 5.39844 7.23438 6.17969 6.72656 6.64844C5.35938 8.01562 4.5 9.92969 4.5 12C4.5 16.1406 7.85938 19.5 12 19.5C16.1406 19.5 19.5 16.1406 19.5 12C19.5 8.28906 16.7656 5.20312 13.25 4.61719V5.75C13.25 6.45312 12.6641 7 12 7C11.2969 7 10.75 6.45312 10.75 5.75V3.25C10.75 2.58594 11.2969 2 12 2ZM9.53906 8.21094L12.6641 11.3359C13.0156 11.7266 13.0156 12.3125 12.6641 12.6641C12.2734 13.0547 11.6875 13.0547 11.3359 12.6641L8.21094 9.53906C7.82031 9.1875 7.82031 8.60156 8.21094 8.21094C8.5625 7.85938 9.14844 7.85938 9.53906 8.21094Z"/>
</svg>

<svg xmlns="http://www.w3.org/2000/svg" width="24" height="24" fill="currentColor" class="icon-timer-solid" viewBox="0 0 24 24">
  <path d="M12 2c5.508 0 10 4.492 10 10 0 5.547-4.492 10-10 10A9.97 9.97 0 0 1 2 12a9.94 9.94 0 0 1 2.969-7.11 1.25 1.25 0 0 1 1.797 0c.468.508.468 1.29-.04 1.758A7.6 7.6 0 0 0 4.5 12c0 4.14 3.36 7.5 7.5 7.5s7.5-3.36 7.5-7.5c0-3.71-2.734-6.797-6.25-7.383V5.75C13.25 6.453 12.664 7 12 7c-.703 0-1.25-.547-1.25-1.25v-2.5c0-.664.547-1.25 1.25-1.25M9.54 8.21l3.124 3.126c.352.39.352.976 0 1.328-.39.39-.976.39-1.328 0L8.21 9.54c-.39-.351-.39-.937 0-1.328.351-.352.937-.352 1.328 0"/>
</svg>
